assets/images/MCCGroupIcons/MCC-Groceries.svg

<svg xmlns="http://www.w3.org/2000/svg" viewBox="0 0 40 40"><style type="text/css">.st0{fill-rule:evenodd;clip-rule:evenodd}</style><path fill-rule="evenodd" d="M25.715 5.97082C25.1467 5.02366 23.9182 4.71653 22.971 5.28483C22.0238 5.85312 21.7167 7.08165 22.285 8.02881L26.4676 14.9998H13.5324L17.715 8.02881C18.2833 7.08165 17.9762 5.85312 17.029 5.28483C16.0818 4.71653 14.8533 5.02366 14.285 5.97082L8.86762 14.9998H3C2.44772 14.9998 2 15.4475 2 15.9998V17.9998C2 18.5521 2.44772 18.9998 3 18.9998H4L5.78101 33.2479C5.90612 34.2487 6.75692 34.9998 7.76556 34.9998H32.2344C33.2431 34.9998 34.0939 34.2487 34.219 33.2479L36 18.9998H37C37.5523 18.9998 38 18.5521 38 17.9998V15.9998C38 15.4475 37.5523 14.9998 37 14.9998H31.1324L25.715 5.97082ZM10.6051 21C10.0135 21 9.55117 21.5108 9.61004 22.0995L10.41 30.0995C10.4612 30.6107 10.8913 31 11.4051 31H11.5001C12.0524 31 12.5001 30.5523 12.5001 30V22C12.5001 21.4477 12.0524 21 11.5001 21H10.6051ZM19.5513 21C18.9794 21 18.524 21.4788 18.5526 22.0499L18.9526 30.0499C18.9792 30.5821 19.4185 31 19.9513 31H20.0488C20.5817 31 21.021 30.5821 21.0476 30.0499L21.4476 22.0499C21.4762 21.4788 21.0207 21 20.4488 21H19.5513ZM27.5001 22C27.5001 21.4477 27.9478 21 28.5001 21H29.3951C29.9867 21 30.449 21.5108 30.3901 22.0995L29.5901 30.0995C29.539 30.6107 29.1089 31 28.5951 31H28.5001C27.9478 31 27.5001 30.5523 27.5001 30V22Z" class="st0" clip-rule="evenodd"/></svg>

<svg xmlns="http://www.w3.org/2000/svg" viewBox="0 0 40 40"><path d="M25.715 5.97a2 2 0 0 0-3.43 2.059l4.183 6.97H13.532l4.183-6.97a2 2 0 1 0-3.43-2.058L8.868 15H3a1 1 0 0 0-1 1v2a1 1 0 0 0 1 1h1l1.781 14.248A2 2 0 0 0 7.766 35h24.468a2 2 0 0 0 1.985-1.752L36 19h1a1 1 0 0 0 1-1v-2a1 1 0 0 0-1-1h-5.868zM10.605 21a1 1 0 0 0-.995 1.1l.8 8a1 1 0 0 0 .995.9h.095a1 1 0 0 0 1-1v-8a1 1 0 0 0-1-1zm8.946 0a1 1 0 0 0-.998 1.05l.4 8a1 1 0 0 0 .998.95h.098a1 1 0 0 0 .999-.95l.4-8a1 1 0 0 0-1-1.05zm7.95 1a1 1 0 0 1 1-1h.894a1 1 0 0 1 .995 1.1l-.8 8a1 1 0 0 1-.995.9H28.5a1 1 0 0 1-1-1z" style="fill-rule:evenodd;clip-rule:evenodd"/></svg>
